X: 12
T: Missa Cucu / Gloria
N: Derived from Mar1003b-Missa_Cucu-Gloria.krn
C: Johannes Martini
%%abc-version 2.0
%%abcx-abcm2ps-target-version 5.9.1 (29 Sep 2008)
%%abc-creator hum2abc beta
%%abcx-conversion-date 2019/02/17 07:19:40
%%abc-edited-by Jesse Rodin
%%abc-edited-by Chris Gage 11-20-2013
%%abcx-initial-encoding-date 2014/06/14/
%%humdrum-veritas 2040490019
%%humdrum-veritas-data 705578797
%%linebreak <none>
%%barnumbers 0
L: 1/4
M: 3/1
Q: 1/2=120
%%staves [1 2 3 4]
V: 1 clef=treble
V: 2 clef=treble-8
V: 3 clef=treble-8
V: 4 clef=bass
K: C
[V:1] A8G4 | 
[V:2] d8B2c2 | 
[V:3] z12 | 
[V:4] D,8E,4 | 
[V:1] F6E2D4 | 
[V:2] d4D2E2F2G2 | 
[V:3] z12 | 
[V:4] D,6C,2_B,,4 | 
[V:1] C2E4DCB,4 | 
[V:2] A2c4BA^G4 | 
[V:3] z12 | 
[V:4] A,,4C,2D,2E,4 | 
[V:1] A,4z2E2F2G2 | 
[V:2] A4c4d2e2 | 
[V:3] z12 | 
[V:4] z2A,,4A,,2D,2C,2 | 
[V:1] A2B3AA3^G/^F/G2 | 
[V:2] A2d4c2B4 | 
[V:3] z12 | 
[V:4] F,2G,4A,2E,4 | 
[V:1] A8E3F | 
[V:2] A8G4 | 
[V:3] c12- | 
[V:4] A,,8C,3D, | 
[V:1] G2A4GFE4 | 
[V:2] G2F2A3G/F/G4 | 
[V:3] c12 | 
[V:4] E,2F,4E,D,C,4 | 
[V:1] D2F4EDC4 | 
[V:2] F8E4 | 
[V:3] A12- | 
[V:4] D,8A,,4- | 
[V:1] E4F4G4 | 
[V:2] c4d3cBAB2 | 
[V:3] A8z4 | 
[V:4] A,,4D,4E,4 | 
[V:1] A4A2G4FG | 
[V:2] A4z4z4 | 
[V:3] c12 | 
[V:4] F,6E,D,C,2F,2- | 
[V:1] A3G/F/E2D2F2ED | 
[V:2] c2d2e2f2d4 | 
[V:3] A12 | 
[V:4] F,E,D,2C,2D,4C,B,, | 
[V:1] E2C2D2E3DB,2 | 
[V:2] c4B2A2^G3^F | 
[V:3] z12 | 
[V:4] A,,4B,,2C,3D,E,2 | 
[V:1] A,2C2D2F2E4 | 
[V:2] A6F2G4 | 
[V:3] z4z4c4 | 
[V:4] A,,4D,4C,4 | 
[V:1] F2A4GFG4 | 
[V:2] F4D4z2G2 | 
[V:3] A8c4 | 
[V:4] D,4F,4E,4 | 
[V:1] F4z2E2FGA2- | 
[V:2] A2B2c4A4 | 
[V:3] d4e4d4 | 
[V:4] D,4C,4D,4 | 
[V:1] AGA2B2^G3^FG2 | 
[V:2] e8e4 | 
[V:3] c4B8 | 
[V:4] A,,4E,8 | 
[V:1] A6GFE4 | 
[V:2] c4A2B2c4 | 
[V:3] A12- | 
[V:4] A,,8z4 | 
[V:1] F4E2D2A4 | 
[V:2] d4e2f3e/d/c2 | 
[V:3] A12 | 
[V:4] D,4C,2D,3E,F,2 | 
[V:1] G2F3E/D/E2A,2D2 | 
[V:2] c2d2z2G2F2G2 | 
[V:3] z12 | 
[V:4] E,2D,4C,2D,2B,,2 | 
[V:1] C2B,3A,A,4^G,2 | 
[V:2] A2F3EE4D2 | 
[V:3] z12 | 
[V:4] A,,2D,4C,2B,,4 | 
[V:1] A,4z2A,2C2D2 | 
[V:2] E4A8 | 
[V:3] c8A4 | 
[V:4] A,,8A,,4 | 
[V:1] E4F2A4G2 | 
[V:2] G2A3GF2E4 | 
[V:3] z4z4c4 | 
[V:4] C,4D,4A,,2C,2 | 
[V:1] F4D2F2G2E2 | 
[V:2] F2D2z2d2B2c2 | 
[V:3] A8G4 | 
[V:4] D,2F,4E,D,E,4 | 
[V:1] F4D6CD | 
[V:2] d4A4_B4 | 
[V:3] A4F8 | 
[V:4] D,8_B,,4 | 
[V:1] E4C4z2C2 | 
[V:2] G4A4G4 | 
[V:3] E12 | 
[V:4] C,4A,,4C,4 | 
[V:1] D2F4E2D2CB, | 
[V:2] z4D8 | 
[V:3] F4G8 | 
[V:4] _B,,8B,,4 | 
[V:1] C4D2F3EDC | 
[V:2] E4F6EF | 
[V:3] A12 | 
[V:4] A,,4D,8 | 
[V:1] B,4A,3B,C2D2- | 
[V:2] G4E4F2G2 | 
[V:3] d4c4A2B2 | 
[V:4] G,,4A,,4A,,2G,,2 | 
[V:1] D2F2EDD3^CCB, | 
[V:2] F2D2z2A4A2 | 
[V:3] A4G2F2E4 | 
[V:4] D,3G,,C,2D,2A,,4 | 
[V:1] D12 | 
[V:2] F4G2_B4_B2 | 
[V:3] D8z4 | 
[V:4] _B,,4G,,8 | 
[V:1] z4E4F3D | 
[V:2] A6G2F2A2- | 
[V:3] c8A4 | 
[V:4] A,,4z2C,2D,2F,2- | 
[V:1] F2G2A2F2A2B2 | 
[V:2] A2G2c2d2f4 | 
[V:3] c4A4d4 | 
[V:4] F,2E,2F,2D,2D,4 | 
[V:1] A2c4BA^G3^F | 
[V:2] e2c2e2f2e4 | 
[V:3] c2e4dcB4 | 
[V:4] z2A,,2C,2D,2E,4 | 
[V:1] A4z4A4- | 
[V:2] c2A2c2d2f2ed | 
[V:3] A8z4 | 
[V:4] A,,6D,4C,B,, | 
[V:1] A2G2F4D4 | 
[V:2] e4d2D2F2G2 | 
[V:3] c4A4z4 | 
[V:4] A,,2C,2D,4_B,,4 | 
[V:1] z4C4A,4 | 
[V:2] A4z2A4F2 | 
[V:3] c4A4z4 | 
[V:4] A,,8F,4 | 
[V:1] E6D2D2CD | 
[V:2] G2A2F8 | 
[V:3] c4A4z4 | 
[V:4] C,4D,8 | 
[V:1] E8C4 | 
[V:2] E2A3G/F/E3FE2 | 
[V:3] c8A4 | 
[V:4] A,,4z2A,,4A,,2 | 
[V:1] D4C2A,2B,4 | 
[V:2] D2F2E2A3^G/^F/^G2 | 
[V:3] z12 | 
[V:4] B,,2D,2A,,4E,4 | 
[V:1] A,4z4z4 | 
[V:2] A8d4 | 
[V:3] z12 | 
[V:4] A,,4D,8 | 
[V:1] z12 | 
[V:2] c2d3ef2e2df- | 
[V:3] z12 | 
[V:4] z4D,4C,2D,2- | 
[V:1] z12 | 
[V:2] fedc/B/c2d2z2F2 | 
[V:3] z12 | 
[V:4] D,E,F,2E,2D,F,2E,D,C,/B,,/ | 
[V:1] z12 | 
[V:2] E2DFGA2GA2zG | 
[V:3] z12 | 
[V:4] C,2D,2C,2B,,2A,,C,D,E,- | 
[V:1] z12 | 
[V:2] cdB2d3cA2f2 | 
[V:3] z12 | 
[V:4] E,D,E,2zD,G,A,F,2A,2- | 
[V:1] z12 | 
[V:2] e3c2BcAB^G2^F | 
[V:3] z12 | 
[V:4] A,G,E,2D,2C,2B,,4 | 
[V:1] C3DE2F2E2A2- | 
[V:2] A8z2A2 | 
[V:3] z4z4c4- | 
[V:4] A,,12 | 
[V:1] A2G2F2E3CD2 | 
[V:2] F2E2D2E3FG2 | 
[V:3] c4A6B2 | 
[V:4] z2C,2D,2A,,2C,2G,,2 | 
[V:1] CB,A,2z2F2GE2D/E/ | 
[V:2] E4F4z2c2 | 
[V:3] A2c3BA2G4 | 
[V:4] A,,4F,,4C,4 | 
[V:1] F4E8 | 
[V:2] A2F2G2A4GF | 
[V:3] F4c8 | 
[V:4] D,4C,4A,,4- | 
[V:1] A,4z4D4 | 
[V:2] E4z4D4 | 
[V:3] z4F4G4 | 
[V:4] A,,4_B,,8 | 
[V:1] C4D6CD | 
[V:2] E4z4A3B | 
[V:3] A8F4 | 
[V:4] A,,4D,8 | 
[V:1] E4F2D3^CCB, | 
[V:2] c4d4z2e2 | 
[V:3] E4D2F2E4 | 
[V:4] A,,4z4A,,4 | 
[V:1] D4z2E2D2F2 | 
[V:2] f2dfec2Bd2A2 | 
[V:3] D2F2G2A6 | 
[V:4] D,4C,2A,,2D,4 | 
[V:1] G2A4F2A2G2- | 
[V:2] z2A2F2A4B2 | 
[V:3] B2c2d4c2e2- | 
[V:4] G,2F,2D,4F,2E,2 | 
[V:1] GF/E/F2E2A3^GG^F | 
[V:2] c2A4e3cde | 
[V:3] e2d2c4B4 | 
[V:4] C,2D,2A,,4E,4 | 
[V:1] A12 ||  
[V:2] c12 ||  
[V:3] A12 ||  
[V:4] A,,12 ||  
[V:1]  [K:C] [K:clef=treble][M:3/1]z12 | 
[V:2]  [K:C] [K:clef=treble-8][M:3/1]d4d6cB | 
[V:3]  [K:C] [K:clef=treble-8][M:3/1]z12 | 
[V:4]  [K:C] [K:clef=bass][M:3/1]z12 | 
[V:1] A4A6GF | 
[V:2] A4D2F3GFE/D/ | 
[V:3] z12 | 
[V:4] z12 | 
[V:1] E4D2F3GFE/D/ | 
[V:2] C4D4z2d2 | 
[V:3] z12 | 
[V:4] z12 | 
[V:1] C4A,2G,2z2C2 | 
[V:2] e3fed/c/B2A4 | 
[V:3] z12 | 
[V:4] z12 | 
[V:1] D3EF2E4A,2 | 
[V:2] B4A4z2c2 | 
[V:3] z12 | 
[V:4] z12 | 
[V:1] B,2C2A,4z2A2 | 
[V:2] d2e2f2e4A2 | 
[V:3] z12 | 
[V:4] z12 | 
[V:1] G3F/E/F2E4C2 | 
[V:2] B2c2A4z2A2 | 
[V:3] z12 | 
[V:4] z12 | 
[V:1] D2B,2A,2z2C3D | 
[V:2] G3F/E/F2E4F2 | 
[V:3] z12 | 
[V:4] z12 | 
[V:1] EFG2F2D4E2 | 
[V:2] G2E2D2z2G3A | 
[V:3] z12 | 
[V:4] z12 | 
[V:1] D2F2EE2D/C/D2C2 | 
[V:2] Bcd2c2A2B2A2 | 
[V:3] z12 | 
[V:4] z12 | 
[V:1] D2A,C2B,/A,/B,2A,2z2 | 
[V:2] f2ee2d/c/d2c2d2 | 
[V:3] z12 | 
[V:4] z12 | 
[V:1] A4G2A2F2FE- | 
[V:2] Ac2B/A/B2A2z2A2- | 
[V:3] z12 | 
[V:4] z12 | 
[V:1] ED/C/B,2A,2z2A,B,C2 | 
[V:2] A2G2A2F3E2D/C/ | 
[V:3] z12 | 
[V:4] z12 | 
[V:1] D2E2F3E/D/E2D2 | 
[V:2] B,2A,2z2A,B,C2D2 | 
[V:3] z12 | 
[V:4] z12 | 
[V:1] z2D2A2G3F/E/F2 | 
[V:2] E2F3E/D/E2D4 | 
[V:3] z12 | 
[V:4] z12 | 
[V:1] GA2Bc3B/A/B2A2 | 
[V:2] z2D2A2G3F/E/F2 | 
[V:3] z12 | 
[V:4] z12 | 
[V:1] E3FG2A3^G/^F/G2 | 
[V:2] GA2ABc2d3/c/B/A/B2 | 
[V:3] z12 | 
[V:4] z12 | 
[V:1] A12 ||  
[V:2] A12 ||  
[V:3] z12 ||  
[V:4] z12 ||  
[V:1]  [K:C] [K:clef=treble][M:2/1]z8 | 
[V:2]  [K:C] [K:clef=treble-8][M:2/1]A8 | 
[V:3]  [K:C] [K:clef=treble-8][M:2/1]z8 | 
[V:4]  [K:C] [K:clef=bass][M:2/1]z8 | 
[V:1] z8 | 
[V:2] d8 | 
[V:3] z8 | 
[V:4] z8 | 
[V:1] z8 | 
[V:2] c4d4 | 
[V:3] z8 | 
[V:4] A,,4B,,4 | 
[V:1] z8 | 
[V:2] e4f4 | 
[V:3] z8 | 
[V:4] A,,4D,4- | 
[V:1] z8 | 
[V:2] e8 | 
[V:3] z8 | 
[V:4] D,2C,B,,C,4 | 
[V:1] z8 | 
[V:2] A4B4 | 
[V:3] z8 | 
[V:4] D,4z2D,2- | 
[V:1] z8 | 
[V:2] A4d4- | 
[V:3] z8 | 
[V:4] D,2C,2D,2B,,2- | 
[V:1] z8 | 
[V:2] d2cBc4 | 
[V:3] z8 | 
[V:4] B,,2A,,G,,A,,4 | 
[V:1] z8 | 
[V:2] d2B4AG | 
[V:3] z8 | 
[V:4] z4D,4 | 
[V:1] z8 | 
[V:2] A4z4 | 
[V:3] z8 | 
[V:4] C,2F,4E,2 | 
[V:1] z8 | 
[V:2] d4c4 | 
[V:3] z8 | 
[V:4] F,2G,2E,2A,2- | 
[V:1] z8 | 
[V:2] f6e2 | 
[V:3] z8 | 
[V:4] A,2D,4A,,2 | 
[V:1] z8 | 
[V:2] d2c2B4 | 
[V:3] z8 | 
[V:4] B,,2C,2D,2E,2 | 
[V:1] z8 | 
[V:2] A4D2E2 | 
[V:3] z8 | 
[V:4] C,2D,4C,2 | 
[V:1] z8 | 
[V:2] F2D2z2c2 | 
[V:3] z8 | 
[V:4] D,2F,2E,4 | 
[V:1] z8 | 
[V:2] d2f4e2 | 
[V:3] z8 | 
[V:4] z2D,2A,4 | 
[V:1] z8 | 
[V:2] f2ed^c4 | 
[V:3] z8 | 
[V:4] D,2F,2E,4 | 
[V:1] z8 | 
[V:2] d4A4 | 
[V:3] z8 | 
[V:4] D,4z2C,2 | 
[V:1] z8 | 
[V:2] _B2A4G2 | 
[V:3] z8 | 
[V:4] D,2F,2E,4 | 
[V:1] z8 | 
[V:2] F2EDE4 | 
[V:3] z8 | 
[V:4] D,4z2G,2 | 
[V:1] z8 | 
[V:2] z4e4 | 
[V:3] z8 | 
[V:4] F,2E,4C,2 | 
[V:1] z8 | 
[V:2] f2e4d2 | 
[V:3] z8 | 
[V:4] D,2C,2A,,2z2 | 
[V:1] z8 | 
[V:2] c2BAB2c2- | 
[V:3] z8 | 
[V:4] E,2D,C,D,2E,2 | 
[V:1] z8 | 
[V:2] cBA4^G2 | 
[V:3] z8 | 
[V:4] A,,4B,,4 | 
[V:1] z8 | 
[V:2] A8- | 
[V:3] c8- | 
[V:4] A,,8- | 
[V:1] E6F2 | 
[V:2] A8 | 
[V:3] c8- | 
[V:4] A,,8 | 
[V:1] G4A4- | 
[V:2] E4F4 | 
[V:3] c8- | 
[V:4] z8 | 
[V:1] A2GFG4 | 
[V:2] E4e4- | 
[V:3] c8 | 
[V:4] A,,6B,,2 | 
[V:1] A4A2F2- | 
[V:2] e4d4 | 
[V:3] A8- | 
[V:4] C,4D,4- | 
[V:1] F2D2E4 | 
[V:2] z4E4 | 
[V:3] A8 | 
[V:4] D,2B,,A,,C,4 | 
[V:1] D2F4ED | 
[V:2] F4G4 | 
[V:3] z8 | 
[V:4] D,4C,4 | 
[V:1] E4A,4 | 
[V:2] A8 | 
[V:3] c8 | 
[V:4] A,,8 | 
[V:1] z4A4- | 
[V:2] F8 | 
[V:3] A8 | 
[V:4] D,8- | 
[V:1] A2G2F3E | 
[V:2] z8 | 
[V:3] F8 | 
[V:4] D,8 | 
[V:1] E6DC | 
[V:2] z8 | 
[V:3] G8- | 
[V:4] C,8 | 
[V:1] D8 | 
[V:2] D8 | 
[V:3] G8 | 
[V:4] B,,8 | 
[V:1] C8 | 
[V:2] E8 | 
[V:3] A8- | 
[V:4] A,,8 | 
[V:1] D4E4- | 
[V:2] F4E4 | 
[V:3] A8 | 
[V:4] D,4C,4- | 
[V:1] E2F2G4 | 
[V:2] A4G4 | 
[V:3] z8 | 
[V:4] C,2D,2E,4 | 
[V:1] A8 | 
[V:2] c4F4 | 
[V:3] c8 | 
[V:4] F,4z2F,2- | 
[V:1] A4A2GF | 
[V:2] z4D4 | 
[V:3] A8 | 
[V:4] F,2D,2F,2E,D, | 
[V:1] E3DE4 | 
[V:2] G4E4 | 
[V:3] z4c4 | 
[V:4] C,3B,,C,4 | 
[V:1] D8 | 
[V:2] F6G2 | 
[V:3] A8 | 
[V:4] D,8- | 
[V:1] z4D4 | 
[V:2] A8 | 
[V:3] d8- | 
[V:4] D,8 | 
[V:1] F4G4 | 
[V:2] D8 | 
[V:3] d8 | 
[V:4] _B,,8 | 
[V:1] A6GF | 
[V:2] z4A4 | 
[V:3] c8 | 
[V:4] A,,4C,4 | 
[V:1] G4A4 | 
[V:2] B4c4- | 
[V:3] d4e4- | 
[V:4] B,,4A,,4- | 
[V:1] c6BA | 
[V:2] c2d2e4- | 
[V:3] e4A4 | 
[V:4] A,,2B,,2C,2D,2 | 
[V:1] B3AA4- | 
[V:2] e2c2d4 | 
[V:3] G4A4 | 
[V:4] E,4F,4 | 
[V:1] A2^G2G2^F2 | 
[V:2] e8 | 
[V:3] B8 | 
[V:4] E,8 | 
[V:1] A4F4 | 
[V:2] c4d4 | 
[V:3] A8- | 
[V:4] F,4D,4 | 
[V:1] E2D2F2ED | 
[V:2] e2f2d4 | 
[V:3] A8- | 
[V:4] C,2D,4C,B,, | 
[V:1] C4F4 | 
[V:2] e4z4 | 
[V:3] A8- | 
[V:4] A,,6D,2- | 
[V:1] E8 | 
[V:2] z4z2A2- | 
[V:3] A8 | 
[V:4] D,2^C,B,,C,4 | 
[V:1] D4z2A2- | 
[V:2] A2F2G2A2 | 
[V:3] z8 | 
[V:4] D,4E,2F,2 | 
[V:1] A2F2G2A2 | 
[V:2] F4E2D2- | 
[V:3] z8 | 
[V:4] D,4C,2F,2- | 
[V:1] F4E2D2- | 
[V:2] D2CB,C2D2 | 
[V:3] z8 | 
[V:4] F,G,A,6- | 
[V:1] D2CB,C2D2- | 
[V:2] F2E4D2 | 
[V:3] z8 | 
[V:4] A,2A,,4D,2- | 
[V:1] D2E4DC | 
[V:2] F2G2A2F2- | 
[V:3] z8 | 
[V:4] D,2C,2A,,2D,2- | 
[V:1] DCB,A,^G,3^F, | 
[V:2] FEDCD3C | 
[V:3] z8 | 
[V:4] D,2C,2B,,4 | 
[V:1] A,4z4 | 
[V:2] E8- | 
[V:3] A8- | 
[V:4] A,,8- | 
[V:1] C6D2 | 
[V:2] E4z4 | 
[V:3] A8- | 
[V:4] A,,8 | 
[V:1] E4F4 | 
[V:2] c4d2f2 | 
[V:3] A8 | 
[V:4] z4D,4 | 
[V:1] G4F4- | 
[V:2] e2c2d4 | 
[V:3] G4A4 | 
[V:4] E,4D,4 | 
[V:1] F2E2E4- | 
[V:2] B4c4 | 
[V:3] G4E4 | 
[V:4] E,4C,4 | 
[V:1] E2DCD4 | 
[V:2] A4B4 | 
[V:3] F8 | 
[V:4] D,8 | 
[V:1] E8 | 
[V:2] A6GF | 
[V:3] E8 | 
[V:4] A,,8- | 
[V:1] C8 | 
[V:2] E4e4 | 
[V:3] A8- | 
[V:4] A,,8 | 
[V:1] D4F4- | 
[V:2] f4d4- | 
[V:3] A8 | 
[V:4] D,8- | 
[V:1] F2E2D4 | 
[V:2] d2cBA4 | 
[V:3] F8 | 
[V:4] D,8 | 
[V:1] z4D4 | 
[V:2] G8 | 
[V:3] _B8 | 
[V:4] G,,8 | 
[V:1] C4E4- | 
[V:2] z4c4- | 
[V:3] A8 | 
[V:4] A,,4C,4- | 
[V:1] E2D2D4- | 
[V:2] c4B4 | 
[V:3] G4F4 | 
[V:4] C,4D,4 | 
[V:1] D2^C2C2B,2 | 
[V:2] A4z2A2- | 
[V:3] E8 | 
[V:4] A,,8 | 
[V:1] D4F4 | 
[V:2] A2B2A2d2 | 
[V:3] D8 | 
[V:4] z4D,4 | 
[V:1] G4A4- | 
[V:2] c3Bd4 | 
[V:3] z8 | 
[V:4] E,4D,2F,2- | 
[V:1] A4G4 | 
[V:2] f4e4 | 
[V:3] c8 | 
[V:4] F,2E,D,C,4 | 
[V:1] F4E4- | 
[V:2] d4c4- | 
[V:3] A8 | 
[V:4] D,4A,,4- | 
[V:1] E2D2C2B,2 | 
[V:2] c2d2e4 | 
[V:3] z8 | 
[V:4] A,,8 | 
[V:1] A,4z2A2 | 
[V:2] d4c2d2- | 
[V:3] f8 | 
[V:4] D,4F,4 | 
[V:1] B2c2d2B2- | 
[V:2] d2e2f2d2- | 
[V:3] d8 | 
[V:4] G,4D,2G,2- | 
[V:1] BAA4^G2 | 
[V:2] dcA2B4 | 
[V:3] z8 | 
[V:4] G,2F,2E,4 | 
[V:1] A6G2 | 
[V:2] A8 | 
[V:3] c8 | 
[V:4] A,,8 | 
[V:1] F4E2C2- | 
[V:2] z8 | 
[V:3] A8 | 
[V:4] D,4E,4 | 
[V:1] C2A,B,C2D2- | 
[V:2] A8 | 
[V:3] z8 | 
[V:4] F,8 | 
[V:1] DEF2GFED | 
[V:2] d8 | 
[V:3] _B8 | 
[V:4] _B,,8 | 
[V:1] E4C4 | 
[V:2] c8 | 
[V:3] G8 | 
[V:4] C,8 | 
[V:1] D4B,4 | 
[V:2] B4d4 | 
[V:3] z8 | 
[V:4] G,,8 | 
[V:1] A,4z2A2- | 
[V:2] c4d4 | 
[V:3] F8 | 
[V:4] z4D,4 | 
[V:1] AGFEF4 | 
[V:2] A2d4cd | 
[V:3] D8 | 
[V:4] F,4D,4 | 
[V:1] G4F2E2 | 
[V:2] e4A4 | 
[V:3] E4F4 | 
[V:4] C,4D,4 | 
[V:1] D8 | 
[V:2] z4D4 | 
[V:3] G8 | 
[V:4] B,,8 | 
[V:1] C4F4 | 
[V:2] E4F4 | 
[V:3] A8 | 
[V:4] A,,4D,4 | 
[V:1] E4A4 | 
[V:2] G4A4 | 
[V:3] c8 | 
[V:4] C,4A,,4 | 
[V:1] B4^G4- | 
[V:2] G4E4 | 
[V:3] B8- | 
[V:4] E,8- | 
[V:1] G2^F2^G4 | 
[V:2] e8- | 
[V:3] B8 | 
[V:4] E,8 | 
[V:1] A8- | 
[V:2] e8 | 
[V:3] A8 | 
[V:4] A,,8- | 
[V:1] A8 | 
[V:2] c8 | 
[V:3] c8 | 
[V:4] A,,8 | 
[V:1] z4A4- | 
[V:2] d4f4 | 
[V:3] A8 | 
[V:4] D,8 | 
[V:1] A4G4 | 
[V:2] e8 | 
[V:3] c8 | 
[V:4] C,8 | 
[V:1] F8 | 
[V:2] d8 | 
[V:3] A8 | 
[V:4] D,8 | 
[V:1] E8 | 
[V:2] z8 | 
[V:3] c8 | 
[V:4] A,,8 | 
[V:1] C4F4- | 
[V:2] z8 | 
[V:3] A8 | 
[V:4] A,,4D,4- | 
[V:1] F2EDE4 | 
[V:2] z8 | 
[V:3] z8 | 
[V:4] D,2C,B,,C,4 | 
[V:1] D4z4 | 
[V:2] z8 | 
[V:3] z8 | 
[V:4] F,6E,D, | 
[V:1] G4F2A2- | 
[V:2] z8 | 
[V:3] z8 | 
[V:4] E,4D,4 | 
[V:1] A2G2E2F2 | 
[V:2] z8 | 
[V:3] z8 | 
[V:4] C,6D,2 | 
[V:1] G2E4C2- | 
[V:2] z8 | 
[V:3] z8 | 
[V:4] E,4A,,4 | 
[V:1] C2A,2B,2D2- | 
[V:2] z8 | 
[V:3] z8 | 
[V:4] C,4D,4 | 
[V:1] D2C2A,2B,2- | 
[V:2] z8 | 
[V:3] z8 | 
[V:4] E,4C,2D,2- | 
[V:1] B,A,A,4^G,2 | 
[V:2] z8 | 
[V:3] z8 | 
[V:4] D,2C,2B,,4 | 
[V:1] A,4C4 | 
[V:2] e8 | 
[V:3] c4A4 | 
[V:4] A,,8 | 
[V:1] D4E4 | 
[V:2] f4e4 | 
[V:3] z4c4 | 
[V:4] D,4C,4 | 
[V:1] F4G4 | 
[V:2] d4B2e2- | 
[V:3] A4z4 | 
[V:4] D,4E,4 | 
[V:1] A4F4 | 
[V:2] e2d2d4 | 
[V:3] c4A4 | 
[V:4] A,,4D,4 | 
[V:1] E8 | 
[V:2] e2c3Bc2 | 
[V:3] z4c4 | 
[V:4] A,,8 | 
[V:1] D4F4 | 
[V:2] d3cA2F2 | 
[V:3] A4z4 | 
[V:4] D,2F,4E,D, | 
[V:1] E2C4A,2 | 
[V:2] G2A2E3F | 
[V:3] c4A4 | 
[V:4] C,2A,,4A,,2 | 
[V:1] B,4A,4 | 
[V:2] G4E4 | 
[V:3] z4c4 | 
[V:4] G,,3F,,A,,4- | 
[V:1] z4A4 | 
[V:2] E2F4ED | 
[V:3] A4z4 | 
[V:4] A,,4A,,4 | 
[V:1] G4A2F2- | 
[V:2] C4F4- | 
[V:3] c4A4 | 
[V:4] z4D,4- | 
[V:1] F2D2E4 | 
[V:2] F4G4 | 
[V:3] z4c4 | 
[V:4] D,4C,4 | 
[V:1] D2F4E2- | 
[V:2] F4A4- | 
[V:3] A4z4 | 
[V:4] D,4D,2A,,2- | 
[V:1] E2E2D3C | 
[V:2] A2G2F4 | 
[V:3] c4A4 | 
[V:4] A,,2C,2D,4 | 
[V:1] E8 | 
[V:2] E4A4- | 
[V:3] z4c4 | 
[V:4] A,,8 | 
[V:1] F4G4 | 
[V:2] A2B2c4 | 
[V:3] d4e4- | 
[V:4] D,4C,4- | 
[V:1] E4A4- | 
[V:2] c3de4- | 
[V:3] e2d2c4 | 
[V:4] C,4A,,4 | 
[V:1] A2^G2G2^F2 | 
[V:2] e4e4 | 
[V:3] B8 | 
[V:4] E,8 | 
[V:1] !fermata!A8 | 
[V:2] !fermata!^c8 | 
[V:3] !fermata!A8 | 
[V:4] !fermata!A,,8 | 
[V:1] !fermata!F8 | 
[V:2] !fermata!d8 | 
[V:3] !fermata!A8 | 
[V:4] !fermata!D,8 | 
[V:1] !fermata!E8 | 
[V:2] !fermata!G8 | 
[V:3] !fermata!c8 | 
[V:4] !fermata!C,8 | 
[V:1] !fermata!F8 | 
[V:2] !fermata!F8 | 
[V:3] !fermata!A8 | 
[V:4] !fermata!D,8 | 
[V:1] !fermata!D8- | 
[V:2] !fermata!G8- | 
[V:3] !fermata!B8- | 
[V:4] !fermata!G,,8- | 
[V:1] D8 | 
[V:2] G8 | 
[V:3] B8 | 
[V:4] G,,8 | 
[V:1] C8 ||  
[V:2] E8 ||  
[V:3] A8 ||  
[V:4] A,,8 ||  
[V:1]  [K:C] [K:clef=treble][M:3/1]A6GFE4 | 
[V:2]  [K:C] [K:clef=treble-8][M:3/1]A8G2A2- | 
[V:3]  [K:C] [K:clef=treble-8][M:3/1]z12 | 
[V:4]  [K:C] [K:clef=bass][M:3/1]A,,8C,4 | 
[V:1] F2E3DC2B,4 | 
[V:2] ABc3BA3^G/^F/^G2 | 
[V:3] z12 | 
[V:4] D,2C,2A,,4E,4 | 
[V:1] A,2C2D2E3DCB, | 
[V:2] A4D2C2E3F/G/ | 
[V:3] c4A4z4 | 
[V:4] A,,4z2A,,3B,,C,2 | 
[V:1] A,2C2B,A,A,4^G,2 | 
[V:2] FA2GFEE4D2 | 
[V:3] z12 | 
[V:4] D,2A,,2D,2C,2B,,4 | 
[V:1] A,6B,2C2D2 | 
[V:2] E4A2G2F4 | 
[V:3] c8A4 | 
[V:4] A,,8z4 | 
[V:1] E2F2E2A3GFE | 
[V:2] E2A3GFEF4 | 
[V:3] z4c4A4 | 
[V:4] A,,8D,4 | 
[V:1] E4z2A4G2 | 
[V:2] G4A6B2 | 
[V:3] z4c4d2e2- | 
[V:4] C,4F,6E,2 | 
[V:1] c2B2A2A3^G/^F/G2 | 
[V:2] c2defe2de4 | 
[V:3] e2d2c2A2B4 | 
[V:4] C,2G,2A,2F,2E,4 | 
[V:1] A4z4D4 | 
[V:2] c3de2A2F2G2 | 
[V:3] A12 | 
[V:4] A,,3B,,C,2D,4C,B,, | 
[V:1] E4A6G2 | 
[V:2] A4A2F4E2 | 
[V:3] c12 | 
[V:4] A,,8z4 | 
[V:1] F4E2F2G2E2- | 
[V:2] F2D2z2d2B2c2 | 
[V:3] A8G4 | 
[V:4] D,4C,2D,2E,2C,2 | 
[V:1] EDD4^CB,C4 | 
[V:2] A2B2A8 | 
[V:3] F4E8 | 
[V:4] D,4A,,8 | 
[V:1] D8D4 | 
[V:2] F2GF2_B2AFG2F/G/ | 
[V:3] D12 | 
[V:4] _B,,8B,,4 | 
[V:1] C4B,8 | 
[V:2] A4G4z2B2 | 
[V:3] E6z2z4 | 
[V:4] A,,4E,8 | 
[V:1] A,4z4D4 | 
[V:2] c2d2B2c2A4 | 
[V:3] A4G2A2F4 | 
[V:4] z2D,2E,2A,,2D,4 | 
[V:1] E4D2C2F2G2 | 
[V:2] A2z2D2E2FAG2 | 
[V:3] E3FG2A4B2 | 
[V:4] A,,2C,2B,,2A,,2D,2G,,2 | 
[V:1] A2B3AA4^G2 | 
[V:2] F2G2D2E2F2G2 | 
[V:3] A2d4c2B4 | 
[V:4] z2G,,2B,,2C,2D,2E,2 | 
[V:1] A4F2G2F2ED | 
[V:2] E2FA2G/F/E2F2G2 | 
[V:3] A4z2c2A4 | 
[V:4] A,,2D,4C,2D,2E,2 | 
[V:1] C4F4E4 | 
[V:2] A4D2F2G2E2 | 
[V:3] z2c2A4z2c2 | 
[V:4] F,6E,D,C,4 | 
[V:1] D2F4G2A4 | 
[V:2] F2D2d4c2A2 | 
[V:3] A2z2f2d2z2f2 | 
[V:4] D,4_B,,4A,,2D,2- | 
[V:1] B2c2A2GFE4 | 
[V:2] F2G2F2G4A2 | 
[V:3] d2z2f2d2z2c2 | 
[V:4] D,2C,2D,2G,,2C,2A,,2 | 
[V:1] D2F2E2D2E2A,2 | 
[V:2] F3E/D/C2F2G2A2- | 
[V:3] A2z2c2A2z2c2 | 
[V:4] D,4z2D,2C,2F,2- | 
[V:1] z2D2E2C3DE2 | 
[V:2] A2F2G2A2E2z2 | 
[V:3] A2z2c4A4 | 
[V:4] F,E,D,2C,2A,,3B,,C,2 | 
[V:1] D2F3GA4GF | 
[V:2] F2D2z2F2D2A2 | 
[V:3] z2F2D2z2F2D2 | 
[V:4] D,4F,3G,A,2F,2 | 
[V:1] G2E3DD4^C2 | 
[V:2] B4c2A3GA2 | 
[V:3] z2G2A2F2E4 | 
[V:4] E,4A,,2D,2A,,4 | 
[V:1] D4z2D2E4 | 
[V:2] F2G2A3Bc4 | 
[V:3] D4E2F2G2A2- | 
[V:4] z2_B,,2A,,2D,2C,2A,,2 | 
[V:1] F2G2A2B2c4 | 
[V:2] z2D2E2F2G2A2 | 
[V:3] A2B2c2d2e2c2 | 
[V:4] D,2B,,2A,,D,3C,2F,2 | 
[V:1] F2G2E2A3^GG^F | 
[V:2] B2c3de3d/c/B2 | 
[V:3] d2e2c3B/A/B4 | 
[V:4] D,2C,4A,,2E,4 | 
[V:1] A12 |]  
[V:2] [c12e12] |]  
[V:3] A12 |]  
[V:4] A,,12 |]  



% FRACTION = 0.875BUT SHOULD BE 0
